X: 1
T: The Rolling Waves $1(Trad Irish)
R: jig
M: 6/8
L: 1/8
K: Dmaj
"D"F2 E EDE|F2 D DED|"D"F2 E EFA|"Em7"d2 e "A"fdA|
"D"F2 E "D/E"EDE|"D/F#"F2 D "D"DED|"D"AFE "D/F#"EFA|"G"B3 d3:|
[|:"D"ABd e2 f|"Em7"d2c "A"B2 A|"D"ABd e2 f|"G"d2 A "A"B3|
"D"ABd "D/C#"ede|"D/B"fdB "G"BAF|"D"AFE "D/F#"EFA|["Norm""G"B3 d3:|["Trans""G"!<(!B6!<)!||
